X: 1
T: Till We Meet Again  [Ab]
C: music: Richard A Whiting
C: words: Raymond B Egan
R: air, waltz
Z: 2018 John Chambers <jc:trillian.mit.edu>
M: 3/4
L: 1/8
K: Ab
P: Verse
A>B |\
c4 B>A | B4 A>G | A2 F4- | F4 E2 | A2 G2 A2 |
B2 c2 d2 | c6- | c2 z2 c=B | c2 G2 ^F2 | G4 A2 |
B2 A2 G2 | A4 GA | B2 G2 E2 | F2 G2 A2 | B6- | =B6 ||
P: Chorus (alto melody)
|:\
[e4c4] [c2A2] | [c4E4] [e2c2] | [d3B3] [c=A] [dB]>[c_A] | [B6G6] | [d4B4] [d2G2] | [d4E4] [f2d2] |
[e3c3] [=d=B] [ec]>[_d_B] | [c6A6] | [d4A4] [d2G2] | [d4F4] [d2A2] | [c4E4] [c2A2] | [e6c6] | [=d4c4] [d2B2] |
[=d4A4] [d4F4] | [_d4G4] [d2A2] | [d4B4] [=d2=B2] | [e4c4] [c2A2] | [c4E4] [e2c2] | [d3B3] [c=A] [dB]>[c_A] |
[B6G6] | [d4B4] [d2G2] | [d4E4] [f2d2] | [e3c3] [=d=B] [ec]>[_d_B] | [c4A4] [e2A2] | [f4A4] [e2G2] | [d4F4] [f2A2] |
[c4E4] [c2A2] | [e6c6] | [=d4B4] [d2F2] | [_d4A4] [d2G2] | [c6-A6-] | [c4A4] z2 :|
